X:1
T:E  Major Samuel Babcock, 1803
T:Nahum Tate & Nicholas Brady, 1698 New Version (Psalm 34, Part 1)   86. 86. (C. M.)
T:Stratton
T:Transcribed from The Middlesex Harmony, 1803.
%%score [ 1 2 3 ]
L:1/8
Q:1/4=100
M:2/4
K:Eb
V:1 treble nm="Tr." snm="Tr."
V:2 treble-8 nm="T." snm="T."
V:3 bass nm="B." snm="B."
V:1
 B2 |{c} B3 e |{A} G3 G/A/ | B2 e2 |{e} d3 e | B3 A | G2 FG/A/ |{A} G4 |: c2 cc | c3 e | fe dc | %11
w: 1.~O|mag- ni-|fy the *|Lord with|me, With|me ex-|alt his * *|name;|When in dis-|tress to|him * I *|
w: 2.~Through|all the|chan- ging *|scenes of|life, In|trou- ble|and in * *|joy,|The prai- ses|of my|God * shall *|
w: 3.~Of|his de-|li- rance *|I will|boast, Till|all that|are dis- * *|tressed,|From my ex-|am- ple|com- * fort *|
 B3 e | B3 e | e2 f/e/d/c/ |{c} B3 e | e3 c | BA GF | G4 :| %18
w: called, He|to my|res- cue * * *|came, He|to my|res- * cue *|came.|
w: still My|heart and|tongue em- * * *|ploy, My|heart and|tongue * em- *|ploy.|
w: take, And|charm their|griefs to * * *|rest, And|charm their|griefs * to *|rest.|
V:2
 G2 |{A} G3 G |{c} B3 c/d/ | eB AG |{G} F3 G/A/ | B3 c/d/ | e2 d2 | e4 |: c2 ff | f3 e | dc B=A | %11
w: 4.~Be-|hold, say|they, be- *|hold * the *|man Whom *|pro- vi- *|dence re-|lieved;|The man so|dan- ger-|ously * be- *|
w: 5.~The|hosts of|God en- *|camp * a- *|round The *|dwel- lings *|of the|just;|De- li- verance|he af-|fords * to *|
w: 6.~O|make but|tri- al *|of * his *|love, Ex- *|per- ience *|will de-|cide|How bless'd thy|are, and|on- * ly *|
 B3 A | G3 G | G2 A2 |{A} G3 G/A/ | B3 e | gf ed | e4 :| %18
w: set, So|won- der-|fully re-|trieved! So *|won- der-|fully * re- *|trieved!|
w: all Who|on his|suc- cor|trust, Who *|on his|suc- * cor *|trust.|
w: they Who|in his|truth con-|fide, Who *|in his|truth * con- *|fide.|
V:3
 E,2 | E,2 E,2 | E,3 E, | E,2 E,2 | B,,3 E, | E,3 A, | B,2 B,,2 | E,4 |: F,2 F,F, | F,2 F,2 | %10
w: 7.~Fear|him, ye|saints, and|you will|then Have|no- thing|else to|fear;|Make you his|ser- vice|
w: 8.~When|hun- gry|li- ons|lack their|prey, The|Lord will|food pro-|vide|For such as|put their|
 F,2 F,2 | B,2 B,,2 | E,2 E,2 | E,2 D,2 | E,3 E,/F,/ | G,3 A, | B,2 B,,2 | E,4 :| %18
w: your de-|light, Your|wants shall|be his|care, Your *|wants shall|be his|care.|
w: trust in|him, And|see their|needs sup-|plied, And *|see their|needs sup-|plied.|

